client/resources/icons/tech/raspberry-pi.svg

<svg width="15" height="19" viewBox="0 0 15 19" fill="none" xmlns="http://www.w3.org/2000/svg">
<path d="M13.689 8.62372L13.5419 8.40451C13.5419 6.65223 12.7314 5.99312 11.8425 5.48161C12.1395 5.40708 12.4336 5.33547 12.509 4.97011C13.0255 4.82542 13.1001 4.60474 13.1725 4.38553C13.3203 4.31099 13.6897 4.0947 13.6897 3.6548C13.9114 3.50866 14.0592 3.28944 13.9868 2.99861C14.2084 2.70413 14.2808 2.48418 14.2084 2.26789C14.5032 1.90253 14.3562 1.68258 14.2808 1.46263C14.5032 1.02274 14.2808 0.585765 13.6897 0.657376C13.4703 0.292014 12.8784 0.366548 12.803 0.366548C12.7314 0.220403 12.5814 0.14733 12.2119 0.220403C11.8425 0.00118573 11.5477 0.00118582 11.2536 0.147331C10.8841 -0.144959 10.6617 0.0757196 10.4393 0.147331C9.99452 0.00118582 9.92211 0.220403 9.70044 0.292014C9.25563 0.221134 9.10933 0.441081 8.88619 0.657376H8.66747C8.00025 1.02274 7.63081 1.90253 7.48377 2.26789C7.33599 1.82799 7.03896 1.02274 6.30007 0.657376H6.08135C5.85895 0.441081 5.71191 0.221134 5.2671 0.292014C5.04543 0.221134 4.97302 0.0011857 4.5282 0.1466C4.38043 0.0757195 4.23413 0.00118578 4.01098 0.00118578C3.93709 0.00118578 3.86468 0.0757196 3.71395 0.147331C3.41987 0.00118582 3.12579 0.00118573 2.90338 0.220403C2.53394 0.14733 2.38616 0.292014 2.31153 0.366548C2.23616 0.366548 1.64801 0.292014 1.42486 0.657376C0.758381 0.586495 0.539669 1.02274 0.758381 1.46263C0.611341 1.68185 0.539669 1.82799 0.833748 2.26789C0.68597 2.4133 0.758381 2.70413 1.05542 2.92408C0.981526 3.21491 1.05541 3.43559 1.35097 3.6548C1.27856 4.02017 1.72042 4.23938 1.79431 4.38553C1.86672 4.60474 1.94208 4.82542 2.45931 4.97011C2.5332 5.33547 2.82875 5.40708 3.12579 5.48161C2.16449 5.99312 1.4256 6.72384 1.4256 8.40451L1.27782 8.62372C0.241896 9.28138 -0.719402 11.3274 0.758381 13.0081C0.833748 13.5196 0.980787 13.8849 1.12783 14.3248C1.35023 16.0026 2.75634 16.8078 3.12579 16.8824C3.64227 17.3186 4.23413 17.684 5.04469 17.9784C5.78358 18.7092 6.59784 19 7.40914 19C8.22266 19 9.03692 18.7092 9.77581 17.9784C10.5864 17.684 11.1782 17.3186 11.6947 16.8824C12.0642 16.8078 13.4703 16.0026 13.6897 14.3248C13.839 13.8849 13.986 13.5196 14.1338 13.0081C15.7594 11.3267 14.7973 9.27991 13.689 8.62372ZM12.7314 8.32997C12.656 9.0607 9.10859 5.92151 9.70044 5.84698C11.3999 5.55615 12.8038 6.50316 12.7314 8.32997ZM8.81377 1.09727C8.81377 1.24342 8.88545 1.31649 8.88545 1.3881C9.10785 1.1718 9.25489 0.951857 9.4773 0.731909C9.4773 0.878054 9.40562 0.951127 9.55266 1.09727C9.6997 0.878054 9.84674 0.731909 10.1438 0.585765C9.99378 0.806443 10.1438 0.878054 10.2162 0.951127C10.4386 0.806443 10.5856 0.657376 10.9551 0.512692C10.8834 0.657376 10.7334 0.731909 10.8834 0.878054C11.1021 0.731909 11.2529 0.657376 11.7693 0.512692C11.694 0.657376 11.4716 0.731909 11.5469 0.878054C11.7686 0.806443 12.0642 0.731909 12.3612 0.657376C12.2105 0.806443 12.0634 0.877324 12.2105 0.951857C12.5082 0.877324 12.8023 0.731909 13.1718 0.877323L12.9501 1.09727H13.839C13.6882 1.31649 13.5412 1.46263 13.4695 1.75346H13.839C13.6882 2.19336 13.3942 2.26789 13.3188 2.4133C13.3942 2.48418 13.5412 2.48418 13.7636 2.4133C13.6158 2.70413 13.3942 2.84955 13.1725 3.06949C13.2464 3.14403 13.3188 3.14403 13.5419 3.06949C13.3188 3.28944 13.1001 3.43486 12.8769 3.6548C12.9493 3.72934 13.1001 3.72934 13.2464 3.72934C13.0247 3.94563 12.6553 4.0947 12.3612 4.24011C12.4329 4.38553 12.5799 4.31099 12.6553 4.31099C12.4336 4.46006 12.0642 4.60548 11.7686 4.67636C11.841 4.75089 11.9164 4.82542 12.0642 4.82542C11.6947 5.04172 11.1775 4.8963 11.0297 5.04172C11.0297 5.11625 11.1775 5.19079 11.2529 5.26167C10.661 5.26167 9.10785 5.26167 8.81377 4.0947C9.40489 3.43486 10.4386 2.70413 12.2858 1.75346C10.8834 2.26789 9.55193 2.84955 8.516 3.72934C7.33599 3.14403 8.14655 1.68258 8.81377 1.09727ZM7.48377 5.33547C8.37044 5.33547 9.47878 5.99312 9.47878 6.65223C9.47878 7.23389 8.66747 7.67378 7.48377 7.67378C6.30007 7.67378 5.48876 7.08921 5.48876 6.5777C5.48876 6.06619 6.4508 5.33547 7.48377 5.33547ZM2.97505 4.89703C3.12579 4.89703 3.19746 4.82542 3.27283 4.75089C2.90338 4.60474 2.53394 4.53167 2.31153 4.31099C2.45931 4.31099 2.5332 4.31099 2.68098 4.24011C2.3869 4.09397 2.08986 3.94563 1.79431 3.72861C1.94208 3.72861 2.08986 3.72861 2.16375 3.6548C1.94208 3.50866 1.72042 3.28944 1.49727 3.1433H1.86672C1.64801 2.84955 1.4256 2.70486 1.27856 2.41257C1.4256 2.48418 1.57264 2.48418 1.71968 2.41257C1.64801 2.26789 1.27856 2.19336 1.12857 1.82799H1.49801C1.4256 1.53717 1.27856 1.31649 1.20319 1.17181H2.08986L1.86672 0.877323C2.23616 0.806443 2.60561 0.877324 2.82802 0.951857C2.97579 0.877324 2.82802 0.731909 2.68098 0.657376C2.97505 0.731909 3.27209 0.806443 3.49523 0.877323C3.64227 0.731909 3.41987 0.658106 3.27283 0.511961C3.78931 0.586495 3.93635 0.731909 4.15876 0.877323C4.30654 0.731909 4.15876 0.658106 4.08339 0.511961C4.45284 0.658106 4.60357 0.806443 4.82228 0.951857C4.89765 0.877324 4.97302 0.805713 4.89765 0.586495C5.04543 0.731909 5.2671 0.877323 5.41487 1.09727C5.56117 1.02274 5.48876 0.878054 5.48876 0.731909C5.71191 0.951127 5.93062 1.1718 6.08135 1.3881C6.15303 1.3881 6.15303 1.24269 6.15303 1.09727C6.74488 1.68185 7.63081 3.1433 6.37543 3.72934C5.34246 2.84955 4.01098 2.19336 2.60561 1.75346C4.45284 2.70413 5.4895 3.43486 6.08135 4.0947C5.78358 5.26167 4.23413 5.3362 3.64227 5.26167C3.78931 5.19079 3.86394 5.11625 3.86394 5.04245C3.78931 4.97084 3.3445 5.04318 2.97505 4.89703ZM5.04469 5.77244C5.63654 5.84697 2.08912 8.98982 2.01745 8.25909C1.94208 6.50316 3.3445 5.48161 5.04469 5.77244ZM1.27856 12.7143C0.388935 11.9836 0.0948568 10.0114 1.71968 9.0607C2.68098 8.76987 2.08912 13.0088 1.27856 12.7143ZM4.67524 16.3679C4.15876 16.6624 2.97579 16.517 2.16449 15.3464C1.57264 14.3248 1.64727 13.3004 2.08912 13.0081C2.68098 12.6427 3.64227 13.1542 4.3058 13.9595C4.89765 14.6157 5.19247 15.9317 4.67524 16.3679ZM3.71468 11.9127C2.82802 11.3274 2.68098 10.0114 3.34524 8.91528C4.08413 7.89373 5.34246 7.45384 6.22839 8.03915C7.11432 8.62372 7.26136 9.94049 6.59784 11.0366C5.93062 12.1327 4.60357 12.498 3.71468 11.9127ZM7.48377 18.4147C6.37543 18.4892 5.34246 17.5386 5.34246 17.2477C5.34246 16.8078 6.66951 16.4425 7.55914 16.4425C8.44507 16.3679 9.62508 16.7333 9.62508 17.1732C9.62508 17.464 8.51674 18.4147 7.48377 18.4147ZM9.70044 13.7395C9.70044 14.8356 8.73988 15.7117 7.55914 15.7117C6.37543 15.7117 5.34246 14.8349 5.34246 13.7388C5.34246 12.6427 6.30007 11.7673 7.48377 11.7673C8.73988 11.7673 9.70044 12.6434 9.70044 13.7395ZM8.37044 10.962C7.63155 9.94049 7.85322 8.55065 8.73988 7.96461C9.62508 7.38296 10.9566 7.74832 11.623 8.8444C12.2866 9.94049 12.1395 11.2529 11.2536 11.8382C10.364 12.3497 9.03766 11.9843 8.37044 10.962ZM12.8038 15.3464C11.8417 16.6617 10.5871 16.6617 10.1453 16.2963C9.62508 15.8579 9.99452 14.3964 10.7334 13.5941C11.4723 12.7143 12.3619 12.1327 12.8784 12.5689C13.2479 13.0804 13.4703 14.4702 12.8038 15.3464ZM13.4703 12.6427C12.656 13.0081 11.9925 8.76987 13.0255 8.98909C14.651 9.86596 14.3555 11.912 13.4703 12.6427Z" />
</svg>

<svg xmlns="http://www.w3.org/2000/svg" viewBox="0 0 15 19">
  <path d="M13.689 8.624l-.147-.22c0-1.752-.81-2.41-1.7-2.922.297-.075.592-.147.667-.512.516-.145.591-.365.663-.584.148-.075.518-.291.518-.731.221-.146.37-.366.297-.656.221-.295.294-.515.221-.731.295-.365.148-.585.073-.805.222-.44 0-.877-.591-.806-.22-.365-.812-.29-.887-.29-.072-.147-.222-.22-.591-.147-.37-.219-.664-.219-.958-.073-.37-.292-.592-.071-.815 0C9.995.001 9.922.22 9.7.292c-.444-.07-.59.15-.814.365h-.219C8 1.023 7.631 1.903 7.484 2.267 7.336 1.829 7.039 1.024 6.3.658h-.219C5.86.441 5.711.221 5.267.292c-.222-.07-.294-.29-.739-.145C4.38.076 4.234 0 4.011 0c-.074 0-.146.075-.297.146-.294-.146-.588-.146-.81.073-.37-.073-.518.072-.592.147-.076 0-.664-.075-.887.29-.667-.07-.885.366-.667.806-.147.219-.218.365.076.805-.148.145-.076.436.221.656-.073.29 0 .512.296.73-.072.366.37.585.443.732.073.219.148.44.665.584.074.365.37.437.667.512-.962.511-1.7 1.242-1.7 2.923l-.148.219C.242 9.28-.72 11.327.758 13.008c.076.512.223.877.37 1.317.222 1.678 1.628 2.483 1.998 2.557a6.079 6.079 0 001.919 1.096C5.784 18.71 6.598 19 7.409 19c.814 0 1.628-.29 2.367-1.022a6.078 6.078 0 001.919-1.096c.37-.074 1.775-.88 1.995-2.557.149-.44.296-.805.444-1.317 1.625-1.681.663-3.728-.445-4.384zm-.958-.294c-.075.73-3.622-2.408-3.03-2.483 1.699-.29 3.103.656 3.03 2.483zM8.814 1.097c0 .146.071.22.071.291.223-.216.37-.436.592-.656 0 .146-.071.22.076.365.147-.219.294-.365.59-.511-.15.22 0 .292.073.365.223-.145.37-.294.74-.438-.073.144-.223.219-.073.365.22-.146.37-.22.886-.365-.075.144-.297.219-.222.365.222-.072.517-.146.814-.22-.15.148-.298.22-.15.294.297-.075.591-.22.96-.075l-.22.22h.888c-.15.22-.298.366-.37.656h.37c-.15.44-.445.515-.52.66.075.071.222.071.445 0-.148.291-.37.437-.591.656.073.075.146.075.369 0-.223.22-.442.366-.665.586.072.074.223.074.37.074-.222.217-.592.366-.886.511.072.146.219.071.294.071-.221.15-.59.294-.886.365.072.075.147.15.295.15-.37.216-.886.07-1.034.216 0 .074.148.149.223.22-.592 0-2.145 0-2.44-1.167.592-.66 1.626-1.39 3.473-2.342-1.403.515-2.734 1.097-3.77 1.976-1.18-.585-.37-2.046.298-2.632zm-1.33 4.238c.886 0 1.995.658 1.995 1.317 0 .582-.812 1.022-1.995 1.022-1.184 0-1.995-.585-1.995-1.096 0-.512.962-1.243 1.995-1.243zm-4.509-.438c.15 0 .222-.072.298-.146-.37-.146-.74-.22-.961-.44.147 0 .221 0 .369-.07a5.765 5.765 0 01-.887-.512c.148 0 .296 0 .37-.074-.222-.146-.444-.366-.667-.512h.37c-.219-.293-.441-.438-.588-.73a.48.48 0 00.44 0c-.071-.145-.44-.22-.59-.585h.369c-.072-.29-.22-.512-.295-.656h.887L1.867.877c.37-.07.739 0 .961.075.148-.075 0-.22-.147-.295.294.075.591.15.814.22.147-.145-.075-.219-.222-.365.516.074.663.22.886.365.148-.145 0-.219-.076-.365.37.146.52.294.74.44.075-.075.15-.146.075-.366.147.146.37.291.517.511.146-.074.074-.219.074-.365.223.22.442.44.592.656.072 0 .072-.145.072-.29.592.584 1.478 2.045.222 2.631-1.033-.88-2.364-1.536-3.77-1.976 1.848.951 2.884 1.682 3.476 2.342-.297 1.167-1.847 1.241-2.439 1.167.147-.071.222-.146.222-.22-.075-.071-.52.001-.889-.145zm2.07.875c.592.075-2.956 3.218-3.028 2.487-.075-1.756 1.328-2.777 3.028-2.487zm-3.766 6.942c-.89-.73-1.184-2.703.44-3.653.962-.291.37 3.948-.44 3.653zm3.396 3.654c-.516.294-1.7.149-2.51-1.022-.592-1.021-.518-2.046-.076-2.338.592-.365 1.553.146 2.217.952.592.656.886 1.972.37 2.408zm-.96-4.455c-.887-.586-1.034-1.902-.37-2.998.74-1.021 1.997-1.461 2.883-.876.886.585 1.033 1.901.37 2.998-.667 1.096-1.994 1.461-2.883.876zm3.769 6.502c-1.109.074-2.142-.876-2.142-1.167 0-.44 1.328-.806 2.217-.806.886-.074 2.066.291 2.066.731 0 .291-1.108 1.242-2.141 1.242zM9.7 13.74c0 1.096-.96 1.972-2.14 1.972-1.185 0-2.218-.877-2.218-1.973s.958-1.972 2.142-1.972c1.256 0 2.216.876 2.216 1.973zm-1.33-2.778c-.738-1.022-.517-2.411.37-2.997.885-.582 2.217-.217 2.883.88.664 1.095.517 2.408-.37 2.993-.889.512-2.215.146-2.883-.876zm4.434 4.384c-.962 1.316-2.217 1.316-2.659.95-.52-.438-.15-1.9.588-2.702.74-.88 1.629-1.461 2.145-1.025.37.511.592 1.901-.074 2.777zm.666-2.703c-.814.365-1.478-3.873-.445-3.654 1.626.877 1.33 2.923.445 3.654z"/>
</svg>
